!!!OTL: Abendlust.
!!!ARE: Europa, Mitteleuropa, Deutschland
!!!SCT: A0334A
!!!TXL: @@DE
!!!YEM: Copyright 1995, estate of Helmut Schaffrath.
**kern	**text
*M4/2	*
*met(c|)	*
*k[f#c#g#]	*
*A:	*
!LO:TX:a:t=a dur.	!
{2e	Was
=1	=1
2a	wölln
2a	wir
2b/	auf
(4a	den
4b/)	.
=2	=2
2cc#	a-
(4b/	-bend
4a)	.
2b}	thun?
{2dd	ſchla-
=3	=3
2cc#	-fen
2a	wöl-
2g#	-len
(4f#	wir
4g#)	.
=4	=4
1a	gahn.
2r}	.
{2e	Was
=5	=5
2a	wölln
2a	wir
2b/	auf
(4a	den
4b/)	.
=6	=6
2cc#	a-
(4b/	-bend
4a)	.
2b}	thun?
{2dd	ſchla-
=7	=7
2cc#	-fen
2a	wöl-
2g#	-len
(4f#	wir
4g#)	.
=8	=8
1a	gahn.
2r}	.
{2a	.
=9	=9
2dd	Schlafen-
2cc#	.
2b	-gehn
(4a	iſt
4b/)	.
=10	=10
2cc#	wol-
(4b/	-ge-
4a)	.
2b/}	-than,
{2cc#	wir
=11	=11
2dd	wölln
2cc#	das
2b/	Bett
(4a	in
4b/)	.
=12	=12
2cc#	dſtu-
(4b/	-ben
4a)	.
2b/	tragn,
2r}	.
=13	=13
{2cc#	ſchla-
2a	-fen
2a	wöll
2g#	wir
=14	=14
!LO:TX:a:t=P:0a in the source:problem	!
!LO:N:vis=0	!
1.a}	gahn.
==	==
!!!GTL: Trink. und Zechlieder, incl. Fastnacht- u. Martinslieder
!!!AGN: Romanze, Ballade, Lied, Trinklied
!! Hainhofer Lautenbuch II S. 32b. (1603)
!!!ONB: ESAC (Essen Associative Code) Database: ALTDEU
!!!AMT: simple quadruple
!!!AIN: vox
!!!EED: Helmut Schaffrath
!!!EEV: 1.0
!!!URL-scan: https://rosdok.uni-rostock.de/mcrviewer/recordIdentifier/rosdok_ppn738218359/iview2/phys_0481.iview2?x=-495.6391625615763&y=948.2832512394525&scale=0.4629418472063854&rotation=0&layout=singlePageLayout&logicalDiv=log_0013
!!!ENC: Anna Maria Matuszewska
!!!EEV: 2024/13/03
*-	*-
